packages/symbols/svgs/solid/message-solid.svg

<svg width="16" height="16" viewBox="0 0 16 16" fill="none" xmlns="http://www.w3.org/2000/svg">
<path d="M1 0H15C15.552 0 16 0.448 16 1V11C16 11.552 15.552 12 15 12H10L4 16V12H1C0.448 12 0 11.552 0 11V1C0 0.448 0.448 0 1 0Z" fill="black"/>
</svg>

<svg width="16" height="16" viewBox="0 0 16 16" xmlns="http://www.w3.org/2000/svg"><path d="M1 0h14a1 1 0 0 1 1 1v10a1 1 0 0 1-1 1h-5l-6 4v-4H1a1 1 0 0 1-1-1V1a1 1 0 0 1 1-1Z"/></svg>
